X:424
T:Mist Covered Mountains, The
R:Slow Air
M:6/8
%%printtempo 0
Q:80
K:D
"Bm"B3 B3|vf2uf vf>>uevc|"A" uA3A3| uc2vc B>>AB|"Bm"d3 "A/C#"e3|
"D"vf>>ga "A"uc>>BA| "Bm"vB>>cf "A/F#"ue>>dc| "Bm"vB3 B3| vf3 f3| "Bm7"ve>>fa "E7"uf>>ec| "A"vA2uA e2c|
"D"vf2 uf "A"ve>>u(dc)|"Bm/G"B3 d3|"A" ve>>fa "F#m"uc>>BA| "Bm/E"B>>cf "A/F#"e>>dc| "Bm"B3 B3|
|:"Bm"vB3B3| "D/B"vf2uf "E7/B"vf>>uec &d2d d>>cc|"A" uA3 A3|uc2vc "F#m"uB>>AB &A2A x3| "Bm"vd3 "A/C#"ue3 &B3c3|"D"vf>>ga "A"uc>>BA &d>>dd x3|
"Bm/G"vB>>cf "A"ue>>dc & B>>BB A>>AA| "Bm"B3 "Bm/F#"B3 | "Bm"f3f3 & d3d3| "D/B"e>>fa "E7"f>>ec & c>>df d>>cc| "A"A2 uA "A/C#"e2c & x3c2A|
"D"f2uf "A"ve>>(dc) &d2d c>>BA| "G"B3 "Bm/G"d3 &G3B3| "D/B"e>>fa  "F#m"c>>BA & c>>cc x3| "Bm/E"B>>cf "A/F#"e>>d"A"c & x2d c>>BA| B3 B3:|
